X:1
T:Rakes of Kildare, The
R:jig
M:6/8
L:1/8
K:Ador
EAA AGA|Bcd e2f|gfg ege|dBG G2F|
EAA AGA|Bcd e2f|gfe dBG|1 ABA A2G:|2 ABA A2a|]
aea aea|aea b2a|gfg ege|dBG G2a|
aea aea|aea b2a|gfe dBG|ABA A2a|
aea aea|aea b2a|gfg ege|dBG G2F|
EAA AGA|Bcd e2f|gfe dBG|ABA A2G|]
